!!!COM:	Josquin des Prez
!!!CDT:	~1450-1521/08/27
!!!OTL@@LAT:	Inviolata, integra et casta es
!!!OTL2@@LAT: Nostra ut pura pectora
!!!OTL3@@LAT: O benigna
!!!AGN:	Motet
!!!SCT:	NJE 24.4
!!!SCA:	New Josquin Edition 24.4
!!!OMD: Prima pars
!!!voices:	5
**kern	**kern	**kern	**kern	**kern
*staff5	*staff4	*staff3	*staff2	*staff1
*clefF4	*clefF4	*clefGv2	*clefGv2	*clefG2
*Ivox	*Ivox	*Ivox	*Ivox	*Ivox
*I"Bassus	*I"Tenor1	*I"Altus	*I"Tenor2	*I"Superius
*I'B	*I'T1	*I'A	*I'T2	*I'S
*>[A,B,C]	*>[A,B,C]	*>[A,B,C]	*>[A,B,C]	*>[A,B,C]
*>Part1[A]	*>Part1[A]	*>Part1[A]	*>Part1[A]	*>Part1[A]
*>Part2[B]	*>Part2[B]	*>Part2[B]	*>Part2[B]	*>Part2[B]
*>Part3[C]	*>Part3[C]	*>Part3[C]	*>Part3[C]	*>Part3[C]
*>A	*>A	*>A	*>A	*>A
*k[b-]	*k[b-]	*k[b-]	*k[]	*k[b-]
*M2/1	*M2/1	*M2/1	*M2/1	*M2/1
*met(C|)	*met(C|)	*met(C|)	*met(C|)	*met(C|)
=1-	=1-	=1-	=1-	=1-
!	!	!	!LO:TX:Z=10:t=Canon&colon; Fuga in diapente	!
0r	0r	0r	0r	0f
=2	=2	=2	=2	=2
0r	0r	0r	0r	1f
.	.	.	.	1f
=3	=3	=3	=3	=3
0r	0r	0r	0r	0g
=4	=4	=4	=4	=4
0F	0r	0r	0r	1a
.	.	.	.	2r
.	.	.	.	[2cc\
=5	=5	=5	=5	=5
1F	0r	0r	0r	4cc\]
.	.	.	.	4b-\
.	.	.	.	2.a/
1F	.	.	.	.
.	.	.	.	4g/
.	.	.	.	2f/
=6	=6	=6	=6	=6
!!linebreak:default
0G	0r	0r	0r	2e/
.	.	.	.	1d
.	.	.	.	4c/
.	.	.	.	4B-/
=7	=7	=7	=7	=7
1A	0r	0F	0r	1A
2.c\	.	.	.	2r
.	.	.	.	[2cc\
4B-\	.	.	.	.
=8	=8	=8	=8	=8
4A\	0r	1F	0r	4cc\]
4G\	.	.	.	4b-\
2.F\	.	.	.	2.a/
.	.	1F	.	.
4E\	.	.	.	4g/
2D\	.	.	.	2f/
=9	=9	=9	=9	=9
2C/	0r	0G	0r	2e/
1BB-	.	.	.	1d
4AA/	.	.	.	4c/
4GG/	.	.	.	4B-/
=10	=10	=10	=10	=10
2FF/	0F	0A	0r	1A
2r	.	.	.	.
2.c\	.	.	.	2r
.	.	.	.	[2cc\
4B-\	.	.	.	.
=11	=11	=11	=11	=11
4A\	1F	1r	0r	4cc\]
4G\	.	.	.	4b-\
2.F\	.	.	.	2.a/
.	1F	2.A/	.	.
4E\	.	.	.	4g/
2D\	.	.	.	2f/
.	.	4B-\	.	.
=12	=12	=12	=12	=12
2C/	0G	2c\	0r	2e/
1BB-	.	2d\	.	1d
.	.	2.D/	.	.
4AA/	.	.	.	4c/
4GG/	.	4E/	.	4B-/
=13	=13	=13	=13	=13
!!pagebreak:default
0FF	[0A	1F	0c	1A
.	.	1c	.	2r
.	.	.	.	2cc\
=14	=14	=14	=14	=14
2r	0A]	1A	1c	2.cc\
2F\	.	.	.	.
.	.	.	.	4b-\
2.F\	.	2.F/	1c	2.a/
4E\	.	4G/	.	4g/
=15	=15	=15	=15	=15
1D	1r	2A/	0d	2f/
.	.	2.B-\	.	2e/
1GG	1B-	.	.	1d
.	.	4c\	.	.
.	.	4d\	.	.
.	.	4B-\	.	.
=16	=16	=16	=16	=16
1r	1A	2.c\	[0e	0c
.	.	4d\	.	.
1C	1G	2e\	.	.
.	.	2c\	.	.
=17	=17	=17	=17	=17
2.AA/	1A	2r	0e]	1r
.	.	2.c\	.	.
4BB-/	.	.	.	.
1C	1G	.	.	1g
.	.	4B-\	.	.
.	.	2c\	.	.
=18	=18	=18	=18	=18
0FF	0F	2.A/	1r	2a/
.	.	.	.	2f/
.	.	4B-\	.	.
.	.	1c	1f	1a
=19	=19	=19	=19	=19
1C	1G	2r	1e	1g
.	.	2c\	.	.
1D	1F	2.A/	1d	1r
.	.	4B-\	.	.
=20	=20	=20	=20	=20
!!linebreak:default
2.C/	0G	2c\	1e	0r
.	.	2C/	.	.
4AA/	.	.	.	.
1BB-	.	1D	1d	.
=21	=21	=21	=21	=21
0AA	[0A	2E/	0c	2r
.	.	2F/	.	2.a/
.	.	2E/	.	.
.	.	.	.	4g/
.	.	2A/	.	2e/
=22	=22	=22	=22	=22
1D	0A]	2.F/	1d	1f
.	.	4G/	.	.
2AA/	.	1A	1c	2e/
2A\	.	.	.	2cc\
=23	=23	=23	=23	=23
2G\	0r	1r	0d	2b-\
1F	.	.	.	1a
.	.	2.A/	.	.
4E\	.	.	.	4g/
4D\	.	4B-\	.	4f/
=24	=24	=24	=24	=24
[0C	0r	2.c\	[0e	2e/
.	.	.	.	2.g/
.	.	4B-\	.	.
.	.	2G/	.	.
.	.	.	.	4f/
.	.	[2A/	.	4e/
.	.	.	.	4d/
=25	=25	=25	=25	=25
0C]	0r	4A/]	0e]	1c
.	.	4G/	.	.
.	.	4A/	.	.
.	.	4F/	.	.
.	.	2G/	.	2r
.	.	2c\	.	2g/
=26	=26	=26	=26	=26
1r	0F	2.A/	0r	1.a
.	.	4B-\	.	.
[1F	.	1c	.	.
.	.	.	.	2b-\
=27	=27	=27	=27	=27
!!linebreak:default
2F\]	1A	1F	0r	1cc
2E\	.	.	.	.
1D	1B-	2r	.	1f
.	.	2F/	.	.
=28	=28	=28	=28	=28
2C/	1A	2E/	0r	0r
2AA/	.	2C/	.	.
1BB-	1G	1D	.	.
=29	=29	=29	=29	=29
1AA	1r	2E/	0c	1r
.	.	2C/	.	.
1FF	1A	1F	.	2r
.	.	.	.	[2cc\
=30	=30	=30	=30	=30
1C	1G	1E	1e	4cc\]
.	.	.	.	4b-\
.	.	.	.	2g/
1FF	1F	[1c	1f	1a
=31	=31	=31	=31	=31
2.C/	1r	2c\]	1e	0g
.	.	2G/	.	.
4BB-/	.	.	.	.
1GG	1G	1B-	1d	.
=32	=32	=32	=32	=32
1D	1F	2A/	1r	0r
.	.	2D/	.	.
1C	[1G	2E/	1e	.
.	.	2C/	.	.
=33	=33	=33	=33	=33
1BB-	1G]	1D	1d	0r
1AA	1A	2E/	1c	.
.	.	2c\	.	.
=34	=34	=34	=34	=34
!!pagebreak:default
2D\	0r	2B-\	1r	0r
2C/	.	2.A/	.	.
1BB-	.	.	1d	.
.	.	4G/	.	.
.	.	4G/	.	.
.	.	4F/	.	.
=35	=35	=35	=35	=35
1AA	0r	1A	1c	1cc
1r	.	2G/	[1d	2b-\
.	.	2F/	.	[2a/
=36	=36	=36	=36	=36
0r	0r	1B-	1d]	4a/]
.	.	.	.	4g/
.	.	.	.	4g/
.	.	.	.	4f/
.	.	1A	1e	1a
=37	=37	=37	=37	=37
1.AA	0A	1.c	0r	1r
.	.	.	.	[1cc
2BB-/	.	2d\	.	.
=38	=38	=38	=38	=38
1C	1G	1e	0r	2cc\]
.	.	.	.	2b-\
1FF	1F	2A/	.	1a
.	.	2f\	.	.
=39	=39	=39	=39	=39
2r	1.G	2d\	0r	1g
1C	.	1e	.	.
.	.	.	.	1r
2D\	2F\	4d\	.	.
.	.	4c\	.	.
=40	=40	=40	=40	=40
1E	1G	1Bni	0e	0r
2AA/	1A	1A	.	.
2A\	.	.	.	.
=41	=41	=41	=41	=41
!!linebreak:default
2F\	0r	1r	1d	1r
2G\	.	.	.	.
1E	.	1G	1c	2r
.	.	.	.	2g/
=42	=42	=42	=42	=42
1D	0r	2A/	1.d	2f/
.	.	2.F/	.	2.a/
1r	.	.	.	.
.	.	4G/	.	4g/
.	.	2A/	2c\	2e/
=43	=43	=43	=43	=43
1r	1r	1D	1d	1f
1C	1c	2r	1e	1e
.	.	2G/	.	.
=44	=44	=44	=44	=44
2D\	2B-\	2F/	0r	0r
2AA/	2A\	2.E/	.	.
1BB-	1G	.	.	.
.	.	4D/	.	.
.	.	4D/	.	.
.	.	4C/	.	.
=45	=45	=45	=45	=45
0AA	1A	2E/	0r	1r
.	.	2.c\	.	.
.	1c	.	.	2r
.	.	4B-\	.	.
.	.	2A/	.	2c/
=46	=46	=46	=46	=46
1r	2B-\	2G/	1r	2d/
.	2A\	2A/	.	2A/
2r	1G	1E	1g	1B-
2E\	.	.	.	.
=47	=47	=47	=47	=47
2F\	0A	2r	2f\	1A
2C/	.	2E/	2e\	.
1D	.	2F/	1d	2r
.	.	2D/	.	2A/
=48	=48	=48	=48	=48
!!linebreak:default
1AA	0r	1A	1e	1c
2r	.	2r	1g	1B-
2E\	.	2G/	.	.
=49	=49	=49	=49	=49
2F\	0r	2A/	2f\	0A
2C/	.	2E/	2e\	.
1D	.	1F	1d	.
=50	=50	=50	=50	=50
0AA	1r	0E	0e	1r
.	1A	.	.	1c
=51	=51	=51	=51	=51
1r	2G\	0r	0r	2d/
.	2F\	.	.	2f/
1C	1G	.	.	1e
=52	=52	=52	=52	=52
2D\	1F	0r	0r	1A
2F\	.	.	.	.
1E	1G	.	.	1Bni
=53	=53	=53	=53	=53
0AA	0A	1r	1r	1.c
.	.	1c	1e	.
.	.	.	.	4Bni/
.	.	.	.	4A/
=54	=54	=54	=54	=54
0r	0r	2d\	2d\	1a
.	.	2e\	2c\	.
.	.	1f	1d	2r
.	.	.	.	[2a/
=55	=55	=55	=55	=55
!!pagebreak:default
1AA	0r	1e	1c	4a/]
.	.	.	.	4g/
.	.	.	.	2e/
2.D\	.	2.A/	1d	1f
4C/	.	4B-\	.	.
=56	=56	=56	=56	=56
1AA	1r	2c\	0e	0e
.	.	4A/	.	.
.	.	4B-\	.	.
1A	1c	4c\	.	.
.	.	4d\	.	.
.	.	[2e\	.	.
=57	=57	=57	=57	=57
2.G\	1B-	4e\]	0r	0r
.	.	4d\	.	.
.	.	2.d\	.	.
4F\	.	.	.	.
1E	1G	.	.	.
.	.	4c#i\	.	.
.	.	2c#i\	.	.
=58	=58	=58	=58	=58
1D	1A	2d\	0r	0r
.	.	4A/	.	.
.	.	4B-\	.	.
1A	2r	4c\	.	.
.	.	4d\	.	.
.	2A\	[2e\	.	.
=59	=59	=59	=59	=59
2.G\	1B-	4e\]	1r	1r
.	.	4d\	.	.
.	.	2.d\	.	.
4F\	.	.	.	.
1E	1G	.	1g	2r
.	.	4c#i\	.	.
.	.	2c#i\	.	2e/
=60	=60	=60	=60	=60
0D	[0Al	1d	1f	2f/
.	.	.	.	2d/
.	.	1f	1d	1dd
=61	=61	=61	=61	=61
1r	0A_	2.e\	1e	1cc
.	.	4d\	.	.
1AA	.	4c\	2r	2r
.	.	4B-\	.	.
.	.	[2A/	2e\	2cc\
=62	=62	=62	=62	=62
!!linebreak:default
1D	0A_	4A/]	1f	2dd\
.	.	4G/	.	.
.	.	4F/	.	2a/
.	.	4E/	.	.
1D	.	1F	1d	1dd
=63	=63	=63	=63	=63
0AAl	0A]	0El	0el	0ccl
!!LO:LB:i:g=z
=64||	=64||	=64||	=64||	=64||
*>B	*>B	*>B	*>B	*>B
*M2/1	*M2/1	*M2/1	*M2/1	*M2/1
*met(C|)	*met(C|)	*met(C|)	*met(C|)	*met(C|)
!!section: Secunda pars: Nostra ut pura pectora
!!!OMD: Secunda pars: Nostra ut pura pectora
1F	0r	0r	0r	0r
1F	.	.	.	.
=65	=65	=65	=65	=65
1A	0r	0r	0r	0r
1B-	.	.	.	.
=66	=66	=66	=66	=66
1A	0r	1F	0r	0r
[1c	.	1F	.	.
=67	=67	=67	=67	=67
2c\]	0r	1A	0r	0r
4B-\	.	.	.	.
4A\	.	.	.	.
1G	.	1B-	.	.
=68	=68	=68	=68	=68
2F\	0r	1A	0r	0r
4FF/	.	.	.	.
4GG/	.	.	.	.
4AA/	.	[1c	.	.
4BB-/	.	.	.	.
4C/	.	.	.	.
4D\	.	.	.	.
=69	=69	=69	=69	=69
!!linebreak:default
2E\	0r	2c\]	0r	0r
2.F\	.	4B-\	.	.
.	.	4A/	.	.
.	.	1G	.	.
4E\	.	.	.	.
4E\	.	.	.	.
4D\	.	.	.	.
=70	=70	=70	=70	=70
2F\	0r	1F	0r	0r
2D\	.	.	.	.
2E\	.	[1G	.	.
[2C/	.	.	.	.
=71	=71	=71	=71	=71
2C/]	0r	1G]	0r	0r
4BB-/	.	.	.	.
4AA/	.	.	.	.
2BB-/	.	1G	.	.
2C/	.	.	.	.
=72	=72	=72	=72	=72
2FF/	0r	1A	0r	0r
2F\	.	.	.	.
2E\	.	2G/	.	.
[2F\	.	[2A/	.	.
=73	=73	=73	=73	=73
4F\]	0r	4A/]	0r	0r
4E\	.	4G/	.	.
4F\	.	4A/	.	.
4D\	.	4F/	.	.
2E\	.	2G/	.	.
2F\	.	[2A/	.	.
=74	=74	=74	=74	=74
2C/	0r	4A/]	0r	0r
.	.	4G/	.	.
2F\	.	4A/	.	.
.	.	4F/	.	.
2E\	.	2G/	.	.
[2F\	.	[2A/	.	.
=75	=75	=75	=75	=75
4F\]	0r	4A/]	0r	0r
4E\	.	4G/	.	.
4F\	.	4A/	.	.
4D\	.	4F/	.	.
4E\	.	1G	.	.
4F\	.	.	.	.
4G\	.	.	.	.
4E\	.	.	.	.
=76	=76	=76	=76	=76
!!pagebreak:default
1F	1F	0F	0r	2r
.	.	.	.	2cc\
2r	1F	.	.	2a/
2F\	.	.	.	2f/
=77	=77	=77	=77	=77
2F\	1A	0r	0r	2c/
2F\	.	.	.	2.f/
1G	1B-	.	.	.
.	.	.	.	4e/
.	.	.	.	4e/
.	.	.	.	4d/
=78	=78	=78	=78	=78
0F	1A	2r	1c	0f
.	.	2c\	.	.
.	1A	2A/	1c	.
.	.	2F/	.	.
=79	=79	=79	=79	=79
2r	1G	2C/	1e	0r
2C/	.	2.c\	.	.
1D	1F	.	1f	.
.	.	4Bni\	.	.
.	.	4Bni\	.	.
.	.	4A/	.	.
=80	=80	=80	=80	=80
0C	1r	1c	1e	2r
.	.	.	.	2g/
.	[1G	2r	1e	2e/
.	.	2c\	.	[2g/
=81	=81	=81	=81	=81
1GG	1G]	4B-\	1d	4g/]
.	.	4c\	.	4f/
.	.	4d\	.	2d/
.	.	4B-\	.	.
2C/	1G	2c\	1c	4e/
.	.	.	.	4f/
2E\	.	2C/	.	4g/
.	.	.	.	4e/
=82	=82	=82	=82	=82
*	*	*M2/1	*	*
*	*	*met(3)	*	*
1D	2A\	3.F/	1r	1f
.	2F\	6G/	.	.
.	.	3A/	.	.
1GG	1G	3B-\	1d	2r
.	.	3G/	.	.
.	.	.	.	2d/
.	.	3B-\	.	.
=83	=83	=83	=83	=83
!!linebreak:default
*	*	*M2/1	*	*
*	*	*met(C|)	*	*
1D	0F	1A	1d	2.f/
.	.	.	.	4g/
2r	.	2r	1d	2.a/
2D\	.	2F/	.	.
.	.	.	.	4b-\
=84	=84	=84	=84	=84
2C/	0r	2G/	2e\	1cc
2AA/	.	2A/	2c\	.
2.BB-/	.	2.D/	1d	2.f/
4AA/	.	4E/	.	4g/
=85	=85	=85	=85	=85
0FF	1F	1F	0c	1a
.	1F	2r	.	2r
.	.	2F/	.	2f/
=86	=86	=86	=86	=86
2r	1A	2F/	0r	2cc\
2FF/	.	2F/	.	2a/
2.BB-/	1B-	2.D/	.	1dd
4AA/	.	4E/	.	.
=87	=87	=87	=87	=87
1FF	1A	1F	1c	1.cc
1C	1G	1E	1c	.
.	.	.	.	4b-\
.	.	.	.	4a/
=88	=88	=88	=88	=88
2C/	1r	0r	1e	1g
2E\	.	.	.	.
1D	1A	.	1f	2r
.	.	.	.	2f/
=89	=89	=89	=89	=89
1C	1c	0r	1e	2g/
.	.	.	.	2.a/
1r	1B-	.	1d	.
.	.	.	.	4g/
.	.	.	.	4g/
.	.	.	.	4f/
=90	=90	=90	=90	=90
!!linebreak:default
2r	0A	2r	1r	0a
2.AA/	.	2A/	.	.
.	.	1c	1e	.
4BB-/	.	.	.	.
4C/	.	.	.	.
4D\	.	.	.	.
=91	=91	=91	=91	=91
4E\	0r	1B-	1g	1r
4F\	.	.	.	.
4G\	.	.	.	.
4E\	.	.	.	.
2.F\	.	2A/	1f	1a
.	.	2F/	.	.
4E\	.	.	.	.
=92	=92	=92	=92	=92
0C	0r	1c	0e	2.g/
.	.	.	.	4f/
.	.	1c	.	1g
=93	=93	=93	=93	=93
1r	1F	0A	0r	1a
1F	1F	.	.	2r
.	.	.	.	2cc\
=94	=94	=94	=94	=94
2F\	1A	0r	0r	2cc\
2F\	.	.	.	2cc\
1BB-	1B-	.	.	1dd
=95	=95	=95	=95	=95
1.F	0A	2r	1c	2cc\
.	.	2c\	.	1a
.	.	2A/	1c	.
4E\	.	[2c\	.	4g/
4D\	.	.	.	4f/
=96	=96	=96	=96	=96
2C/	1r	4c\]	1e	1g
.	.	4B-\	.	.
2E\	.	2G/	.	.
1D	[1A	2A/	1f	1f
.	.	2F/	.	.
=97	=97	=97	=97	=97
!!pagebreak:default
1C	2A\]	4c\	0e	0r
.	.	4B-\	.	.
.	4G\	4c\	.	.
.	4F\	4d\	.	.
1C	1G	4e\	.	.
.	.	4f\	.	.
.	.	4g\	.	.
.	.	4e\	.	.
=98	=98	=98	=98	=98
1D	1F	2.f\	1r	2r
.	.	.	.	2a/
.	.	4e\	.	.
1AA	1A	1c	[1e	2.cc\
.	.	.	.	4b-\
=99	=99	=99	=99	=99
0r	1c	0r	2e\]	2g/
.	.	.	4d\	2.a/
.	.	.	4c\	.
.	1B-	.	1d	.
.	.	.	.	4g/
.	.	.	.	4g/
.	.	.	.	4f/
=100	=100	=100	=100	=100
1r	2A\	2r	1c	0a
.	2F\	2.c\	.	.
2r	1c	.	1e	.
.	.	4B-\	.	.
2AA/	.	[2A/	.	.
=101	=101	=101	=101	=101
1E	1B-	2A/]	1g	0r
.	.	2G/	.	.
2.F\	2A\	1A	1f	.
.	2F\	.	.	.
4E\	.	.	.	.
=102	=102	=102	=102	=102
2C/	1c	0r	2e\	2r
2AA/	.	.	2c\	2a/
1E	1B-	.	1g	2b-\
.	.	.	.	2g/
=103	=103	=103	=103	=103
2.F\	0A	2r	1f	1a
.	.	2A/	.	.
4E\	.	.	.	.
2C/	.	2.c\	2e\	2r
2AA/	.	.	2c\	2cc\
.	.	4B-\	.	.
=104	=104	=104	=104	=104
!!linebreak:default
1E	0r	1G	1g	2b-\
.	.	.	.	2g/
2.D\	.	1d	1f	2.a/
4C/	.	.	.	4b-\
=105	=105	=105	=105	=105
0AAl	0Al	0cl	0el	0ccl
!!LO:LB:i:g=z
=106||	=106||	=106||	=106||	=106||
*>C	*>C	*>C	*>C	*>C
!!section: Tertia pars: O benigna
!!!OMD: Tertia pars: O benigna
0r	0A	[0c	0r	1r
.	.	.	.	[1cc
=107	=107	=107	=107	=107
0C	0G	0c]	0e	1cc]
.	.	.	.	1g
=108	=108	=108	=108	=108
1GG	0G	0B-	0d	1g
1GG	.	.	.	[1b-
=109	=109	=109	=109	=109
1.BB-	0F	0B-	0d	2b-\]
.	.	.	.	4a/
.	.	.	.	4g/
.	.	.	.	2.f/
2AA/	.	.	.	.
.	.	.	.	4g/
=110	=110	=110	=110	=110
0FF	0r	0A	0c	2.a/
.	.	.	.	4b-\
.	.	.	.	1cc
=111	=111	=111	=111	=111
!!linebreak:default
0r	0A	[0c	0r	1r
.	.	.	.	[1cc
=112	=112	=112	=112	=112
0C	0G	0c]	0e	1cc]
.	.	.	.	1g
=113	=113	=113	=113	=113
1GG	0G	0B-	0d	1g
1GG	.	.	.	[1b-
=114	=114	=114	=114	=114
1.BB-	0F	0B-	0d	2b-\]
.	.	.	.	4a/
.	.	.	.	4g/
.	.	.	.	2.f/
2AA/	.	.	.	.
.	.	.	.	4g/
=115	=115	=115	=115	=115
0FF	0r	0A	0c	2.a/
.	.	.	.	4b-\
.	.	.	.	1cc
=116	=116	=116	=116	=116
0r	0A	[0c	0r	1r
.	.	.	.	[1cc
=117	=117	=117	=117	=117
0C	0G	0c]	0e	1cc]
.	.	.	.	1g
=118	=118	=118	=118	=118
!!pagebreak:default
1GG	0G	0B-	0d	1g
1GG	.	.	.	[1b-
=119	=119	=119	=119	=119
1.BB-	0F	0B-	0d	2b-\]
.	.	.	.	4a/
.	.	.	.	4g/
.	.	.	.	1f
2AA/	.	.	.	.
=120	=120	=120	=120	=120
1FF	0r	2A/	0c	1r
.	.	4F/	.	.
.	.	4G/	.	.
2.F\	.	4A/	.	1c
.	.	4B-\	.	.
.	.	[2c\	.	.
4E\	.	.	.	.
=121	=121	=121	=121	=121
1D	1F	4c\]	0r	1d
.	.	4Bni\	.	.
.	.	4Bni\	.	.
.	.	4A/	.	.
1C	1G	1c	.	1e
=122	=122	=122	=122	=122
2r	1A	2r	1c	0r
2F\	.	2A/	.	.
2BB-/	1r	2B-\	1d	.
2D\	.	2A/	.	.
=123	=123	=123	=123	=123
1C	1A	1c	1e	1r
2BB-/	2B-\	1F	1r	1f
2FF/	2A\	.	.	.
=124	=124	=124	=124	=124
1C	1G	2r	1e	1g
.	.	2c\	.	.
1FF	[1F	2A/	2f\	1a
.	.	2c\	2e\	.
=125	=125	=125	=125	=125
!!linebreak:default
1BB-	2F\]	2.B-\	1d	1r
.	4E\	.	.	.
.	4D\	8A/L	.	.
.	.	8B-/J	.	.
2.C/	1E	4A/	[1c	2r
.	.	4G/	.	.
.	.	[2G/	.	2g/
4BB-/	.	.	.	.
=126	=126	=126	=126	=126
1AA	1r	4G/]	2c\]	1a
.	.	4E/	.	.
.	.	2F/	4B\	.
.	.	.	4A/	.
*	*	*M2/1	*	*
*	*	*met(3)	*	*
1GG	1G	3G/	1B	1d
.	.	3D/	.	.
.	.	3G/	.	.
=127	=127	=127	=127	=127
2C/	1G	3E/	1r	1e
.	.	3G/	.	.
2E\	.	.	.	.
.	.	3C/	.	.
1D	1A	3.F/	1d	1f
.	.	6G/	.	.
.	.	3A/	.	.
=128	=128	=128	=128	=128
*	*	*M2/1	*	*
*	*	*met(C|)	*	*
1GG	1.G	4B-\	1d	1r
.	.	4c\	.	.
.	.	4d\	.	.
.	.	4B-\	.	.
1C	.	1c	1e	1g
.	2E\	.	.	.
=129	=129	=129	=129	=129
2.D\	1F	1A	1.d	2.f/
4C/	.	.	.	4e/
1BB-	1G	2r	.	1d
.	.	2D/	2B-i\	.
=130	=130	=130	=130	=130
1AA	1A	2E/	1c	1c
.	.	2.F/	.	.
1D	1F	.	1d	1f
.	.	4G/	.	.
.	.	4A/	.	.
.	.	4B-\	.	.
=131	=131	=131	=131	=131
1C	1G	1.c	1e	2e/
.	.	.	.	2g/
2.F\	1A	.	1c	2f/
.	.	2F/	.	[2a/
4E\	.	.	.	.
=132	=132	=132	=132	=132
!!linebreak:default
1D	1F	2.A/	1d	4a/]
.	.	.	.	4g/
.	.	.	.	2f/
.	.	4B-\	.	.
1C	1G	1c	1e	2e/
.	.	.	.	[2cc\
=133	=133	=133	=133	=133
2r	0A	1r	1c	4cc\]
.	.	.	.	4b-\
2F\	.	.	.	4a/
.	.	.	.	4g/
2D\	.	2r	1d	4f/
.	.	.	.	4g/
2F\	.	2A/	.	4a/
.	.	.	.	4f/
=134	=134	=134	=134	=134
2E\	[0G	2B-\	0e	2g/
2.C/	.	2c\	.	2e/
.	.	2G/	.	[1g
4BB-/	.	.	.	.
2C/	.	2c\	.	.
=135	=135	=135	=135	=135
1GG	0G]	2B-\	[0d	2g/]
.	.	1G	.	4f/
.	.	.	.	4e/
2r	.	.	.	2d/
2GG/	.	4F/	.	[2b-\
.	.	4E/	.	.
=136	=136	=136	=136	=136
1BB-	[0F	1D	0d]	2b-\]
.	.	.	.	4a/
.	.	.	.	4g/
1BB-	.	1B-	.	2.f/
.	.	.	.	4g/
=137	=137	=137	=137	=137
1FF	0F_	2A/	[0cl	4a/
.	.	.	.	4b-\
.	.	2F/	.	2cc\
2.F\	.	2.A/	.	2a/
.	.	.	.	4cc\
4G\	.	4B-\	.	4b-\
=138	=138	=138	=138	=138
2.A\	0F]	1c	0c_	4a/
.	.	.	.	4g/
.	.	.	.	2a/
4B-\	.	.	.	.
2.c\	.	2r	.	2r
.	.	2F/	.	[2cc\
4B-\	.	.	.	.
=139	=139	=139	=139	=139
!!pagebreak:default
4A\	1r	2.F/	0c_	4cc\]
4G\	.	.	.	4b-\
1F	.	.	.	1a
.	.	4G/	.	.
.	1F	2.A/	.	.
4E\	.	.	.	4g/
4D\	.	4B-\	.	4f/
=140	=140	=140	=140	=140
[0C	2G\	1c	0c_	2e/
.	2E\	.	.	4c/
.	.	.	.	4d/
.	2G\	4C/	.	4e/
.	.	4D/	.	4f/
.	2C/	4E/	.	[2g/
.	.	4F/	.	.
=141	=141	=141	=141	=141
0C]	2E\	2G/	0c_	4g/]
.	.	.	.	4f/
.	2F\	2A/	.	2.f/
.	1G	2G/	.	.
.	.	.	.	4e/
.	.	2c\	.	4e/
.	.	.	.	4d/
=142	=142	=142	=142	=142
1r	[0Fl	2A/	0c_	[0fl
.	.	2.c\	.	.
[1F	.	.	.	.
.	.	4B-\	.	.
.	.	4A/	.	.
.	.	4G/	.	.
=143	=143	=143	=143	=143
2F\]	0F_	[0Al	0c_	0f_
2F\	.	.	.	.
1F	.	.	.	.
=144	=144	=144	=144	=144
0FFl	0F]	0A]	0c]	0f]
==	==	==	==	==
*-	*-	*-	*-	*-
!!!RDF**kern: l=long note in original notation
!!!RDF**kern: i=musica ficta
!!!ENC:	Watson 2011/04/06; Victoria Chang 2011/04/10
!!!END:	2011/04/06/
!!!SMS:	Smijers 73
!!!EED:	Jesse Rodin
!!!EEV:	2011/04/11/
!!!ONB:	Translated from MusicXML and edited on 2011/04/11/ by Craig Sapp
!!muse2ps: u^(2) @{OTL2}  (3) @{OTL3}^C^@{COM}\n@{SCT}^i2I150v90,90,90,90,120c100Q16
